X: 182
T: Tearin doon the building next tae oors
M:4/4
R:song
Q:1/2=90
L:1/8
Z:Alf Warnock - alf0@rogers.com
K:G
B2c2|"G"d3e dB3|G4 g2g2|"C"g3a ge3|c4 e2e2|
"G"e3d d2B2|G2G2 B2d2|"D7"A8-|A4 B2c2|
"G"d3e dB3|G4 g2g2|"C"g3a ge3|c4 e2e2|
"G"e3d d2B2|"D7"c3c B2A2|"G"G8-|G4 ||
%%text Chorus
B2c2|"G"d2d2 d3d|"D7"c2c2 B2A2|"G"G8-|G4 B2d2|
"Em"g2g2 g3g|"A7"f2f2 e2e2|"D7"d8-|d4 e2f2|
"G"g2g2 g3g|g4 B2B2|"C"c3B c2d2|e4 f2g2||
"G"d2d2 d3d|"D7"c2c2 B2A2|"G"G8-|G8|

